NotoEmoji/emoji_u1f237.svg

<svg enable-background="new 0 0 128 128" viewBox="0 0 128 128" xmlns="http://www.w3.org/2000/svg"><path d="m116 4h-104c-4.42 0-8 3.58-8 8v104c0 4.42 3.58 8 8 8h104c4.42 0 8-3.58 8-8v-104c0-4.42-3.58-8-8-8z" fill="#f77e00"/><path d="m109.7 4h-98.2c-4.13.03-7.47 3.37-7.5 7.5v97.9c-.01 4.14 3.34 7.49 7.48 7.5h.02 98.1c4.14.01 7.49-3.34 7.5-7.48 0-.01 0-.01 0-.02v-97.9c.09-4.05-3.13-7.41-7.18-7.5-.07 0-.15 0-.22 0z" fill="#ff9800"/><path d="m39.7 12.9c0-2.3-1.6-3-10.8-2.7-7.7.3-11.5 1.2-13.8 4s-2.9 8.5-3 15.3c0 4.8 0 9.3 2.5 9.3 3.4 0 3.4-7.9 6.2-12.3 5.4-8.7 18.9-10.6 18.9-13.6z" fill="#ffbd52" opacity=".75"/><path d="m96 95.2c0 5.7-1.5 8.4-5.3 9.9s-9.8 1.8-18.8 1.8c-.87 0-1.64-.57-1.9-1.4-.53-1.7-1.17-3.37-1.9-5-.44-1.01.02-2.19 1.03-2.63.24-.11.5-.16.77-.17 6.2.2 11.9.1 13.9.1s2.8-.8 2.8-2.8v-14.7c0-1.1-.9-2-2-2h-39.4c-.91-.01-1.7.62-1.9 1.5-2.4 9.5-6.7 18.8-14.3 25.9-.76.75-1.98.74-2.73-.02-.02-.02-.05-.05-.07-.08-1.1-1.2-2.5-2.5-3.7-3.6-.83-.73-.9-2-.17-2.82.02-.03.05-.05.07-.08 13.2-12.6 14.5-30.3 14.5-44.6v-27.7c0-1.1.9-2 2-2h55.1c1.1 0 2 .9 2 2zm-9.3-27.3v-10.1c0-1.1-.9-2-2-2h-36.8c-1.07 0-1.95.83-2 1.9-.1 3.2-.3 6.5-.6 10-.1 1.06.67 1.99 1.73 2.09.09.01.18.01.27.01h37.5c1.05 0 1.9-.85 1.9-1.9zm-40.7-32.6v10.1c0 1.1.9 2 2 2h36.8c1.1 0 2-.9 2-2v-10.1c0-1.1-.9-2-2-2h-36.9c-1.06.01-1.91.88-1.9 1.94z" fill="#fafafa"/></svg>

<?xml version="1.0" encoding="utf-8"?>
<!-- Generator: Adobe Illustrator 25.2.3, SVG Export Plug-In . SVG Version: 6.00 Build 0)  -->
<svg version="1.1" id="Layer_2" xmlns="http://www.w3.org/2000/svg" xmlns:xlink="http://www.w3.org/1999/xlink" x="0px" y="0px"
	 viewBox="0 0 128 128" style="enable-background:new 0 0 128 128;" xml:space="preserve">
<g>
	<path style="fill:#F77E00;" d="M116,4H12c-4.42,0-8,3.58-8,8v104c0,4.42,3.58,8,8,8h104c4.42,0,8-3.58,8-8V12
		C124,7.58,120.42,4,116,4z"/>
	<path style="fill:#FF9800;" d="M109.7,4H11.5C7.37,4.03,4.03,7.37,4,11.5v97.9c-0.01,4.14,3.34,7.49,7.48,7.5c0.01,0,0.01,0,0.02,0
		h98.1c4.14,0.01,7.49-3.34,7.5-7.48c0-0.01,0-0.01,0-0.02V11.5c0.09-4.05-3.13-7.41-7.18-7.5C109.85,4,109.77,4,109.7,4z"/>
	<path style="opacity:0.75;fill:#FFBD52;enable-background:new    ;" d="M39.7,12.9c0-2.3-1.6-3-10.8-2.7c-7.7,0.3-11.5,1.2-13.8,4
		s-2.9,8.5-3,15.3c0,4.8,0,9.3,2.5,9.3c3.4,0,3.4-7.9,6.2-12.3C26.2,17.8,39.7,15.9,39.7,12.9z"/>
	<path style="fill:#FAFAFA;" d="M96,95.2c0,5.7-1.5,8.4-5.3,9.9s-9.8,1.8-18.8,1.8c-0.87,0-1.64-0.57-1.9-1.4
		c-0.53-1.7-1.17-3.37-1.9-5c-0.44-1.01,0.02-2.19,1.03-2.63c0.24-0.11,0.5-0.16,0.77-0.17c6.2,0.2,11.9,0.1,13.9,0.1
		s2.8-0.8,2.8-2.8V80.3c0-1.1-0.9-2-2-2H45.2c-0.91-0.01-1.7,0.62-1.9,1.5c-2.4,9.5-6.7,18.8-14.3,25.9
		c-0.76,0.75-1.98,0.74-2.73-0.02c-0.02-0.02-0.05-0.05-0.07-0.08c-1.1-1.2-2.5-2.5-3.7-3.6c-0.83-0.73-0.9-2-0.17-2.82
		c0.02-0.03,0.05-0.05,0.07-0.08c13.2-12.6,14.5-30.3,14.5-44.6V26.8c0-1.1,0.9-2,2-2H94c1.1,0,2,0.9,2,2V95.2z M86.7,67.9V57.8
		c0-1.1-0.9-2-2-2H47.9c-1.07,0-1.95,0.83-2,1.9c-0.1,3.2-0.3,6.5-0.6,10c-0.1,1.06,0.67,1.99,1.73,2.09
		c0.09,0.01,0.18,0.01,0.27,0.01h37.5C85.85,69.8,86.7,68.95,86.7,67.9z M46,35.3v10.1c0,1.1,0.9,2,2,2h36.8c1.1,0,2-0.9,2-2V35.3
		c0-1.1-0.9-2-2-2H47.9c-1.06,0.01-1.91,0.88-1.9,1.94C46,35.26,46,35.28,46,35.3z"/>
</g>
</svg>
